dbg/src/shared/assets/icons/cold.svg

<svg width="64" height="64" viewBox="0 0 64 64" fill="none" xmlns="http://www.w3.org/2000/svg">
<g clip-path="url(#clip0_4_388)">
<path d="M32 5.33333V22.6667L40 27.2533M26.6666 10.6667L32 13.3333L37.3333 10.6667H26.6666Z" stroke="white" stroke-width="3" stroke-linecap="round" stroke-linejoin="round"/>
<path d="M55.094 18.6667L40.0829 27.3333L40.1108 36.5549M47.8086 16.7145L48.1658 22.6667L53.1419 25.9521L47.8086 16.7145Z" stroke="white" stroke-width="3" stroke-linecap="round" stroke-linejoin="round"/>
<path d="M55.094 45.3333L40.0828 36.6667L32.1107 41.3015M53.1418 38.0479L48.1658 41.3333L47.8085 47.2855L53.1418 38.0479Z" stroke="white" stroke-width="3" stroke-linecap="round" stroke-linejoin="round"/>
<path d="M32 58.6667V41.3333L24 36.7467M37.3334 53.3333L32 50.6667L26.6667 53.3333H37.3334Z" stroke="white" stroke-width="3" stroke-linecap="round" stroke-linejoin="round"/>
<path d="M8.90597 45.3333L23.9171 36.6667L23.8892 27.4451M16.1914 47.2855L15.8342 41.3333L10.8581 38.0479L16.1914 47.2855Z" stroke="white" stroke-width="3" stroke-linecap="round" stroke-linejoin="round"/>
<path d="M8.90605 18.6667L23.9172 27.3333L31.8893 22.6985M10.8582 25.9521L15.8342 22.6667L16.1915 16.7145L10.8582 25.9521Z" stroke="white" stroke-width="3" stroke-linecap="round" stroke-linejoin="round"/>
</g>
<defs>
<clipPath id="clip0_4_388">
<rect width="64" height="64" fill="white"/>
</clipPath>
</defs>
</svg>

<svg xmlns="http://www.w3.org/2000/svg" width="64" height="64" fill="none"><g stroke="#fff" stroke-linecap="round" stroke-linejoin="round" stroke-width="3" clip-path="url(#a)"><path d="M32 5.333v17.334l8 4.586M26.667 10.667 32 13.333l5.333-2.666H26.667ZM55.094 18.667l-15.011 8.666.028 9.222m7.698-19.84.357 5.952 4.976 3.285-5.333-9.238ZM55.094 45.333l-15.011-8.666L32.11 41.3m21.03-3.253-4.975 3.285-.357 5.953 5.333-9.238ZM32 58.667V41.333l-8-4.586m13.333 16.586L32 50.667l-5.333 2.666h10.666ZM8.906 45.333l15.011-8.666-.028-9.222m-7.698 19.84-.357-5.952-4.976-3.285 5.333 9.237ZM8.906 18.667l15.011 8.666L31.89 22.7m-21.03 3.253 4.975-3.285.358-5.953-5.334 9.238Z"/></g><defs><clipPath id="a"><path fill="#fff" d="M0 0h64v64H0z"/></clipPath></defs></svg>
